findly-builder/apps/searchassist/src/assets/icons/sidemenu/new-icons/credentials-active.svg

<svg width="14" height="11" viewBox="0 0 14 11" fill="none" xmlns="http://www.w3.org/2000/svg">
<path d="M2.5 0C1.12521 0 0 1.12521 0 2.5C0 3.70294 0.863626 4.71505 2 4.94922V8H0V9H2V10H0V11H3V4.94922H3.00195C4.13833 4.71505 5 3.70294 5 2.5C5 1.12521 3.87479 0 2.5 0ZM2.5 1C3.33435 1 4 1.66565 4 2.5C4 3.33435 3.33435 4 2.5 4C1.66565 4 1 3.33435 1 2.5C1 1.66565 1.66565 1 2.5 1ZM6 2V2.5V5H14V2H6ZM7 3H13V4H7V3ZM6 6V6.5V9H14V6H6ZM7 7H13V8H7V7Z" fill="#0D6EFD"/>
</svg>

<svg width="14" height="11" fill="none" xmlns="http://www.w3.org/2000/svg"><path d="M2.5 0A2.508 2.508 0 0 0 0 2.5c0 1.203.864 2.215 2 2.45V8H0v1h2v1H0v1h3V4.95h.002A2.51 2.51 0 0 0 5 2.5C5 1.125 3.875 0 2.5 0Zm0 1C3.334 1 4 1.666 4 2.5S3.334 4 2.5 4 1 3.334 1 2.5 1.666 1 2.5 1ZM6 2v3h8V2H6Zm1 1h6v1H7V3ZM6 6v3h8V6H6Zm1 1h6v1H7V7Z" fill="#0D6EFD"/></svg>
